X:1
T:In the Highway of the King
T:John Prentice (Jack) Scholfield, 1918
T:In the Highway of the King
T:Public Domain
T:Public Domain
C:John Prentice (Jack) Scholfield, 1918
Z:Public Domain
%%score ( 1 2 ) ( 3 4 )
L:1/8
M:6/4
K:Ab
V:1 treble 
V:2 treble 
V:3 bass 
V:4 bass 
V:1
 [CA][DB] | [Ec][CE][=B,=D][CE] [CA]2 [CG]2 | [DB][DF]- [DF]4 [FB][Fc] | %3
w: 1.~In the|high- way of the King I’m|walk- ing, * From the|
w: 2.~In the|high- way of the King I’m|walk- ing, * Heav- en’s|
w: 3.~In the|high- way of the King I’m|walk- ing, * Ne- ver-|
 [Ed][EB][EG][EF] E2 [EB]2 | (z AGF E2) [CA][DB] | [Ec][CE][=B,=D][CE] [CA]2 [C_B]2 | %6
w: val- ley of the world I’ve|* * * * In the|* way of the King I’m|
w: glo- ry shin- ing round my|* * * * In the|* way of the King I’m|
w: more in sin- ful paths to|* * * * In the|* way of the King I’m|
 [DA][DG]- [DG]4 [EB][Ec] | [Ed][EB][EG][EF] E2 [EB]2 | [EA]6 ||"^Refrain" [Ae][Ae] | %10
w: walk- ing, * I am|hap- py in the love once|||
w: walk- ing, * Love and|ser- vice crown the path I|In|the high-|
w: walk- ing, * Ev- er|on- ward till He calls me|||
 [Af][Ae][Ed][EB] [EG]2 [EF]2 | E[_Ec]- [Ec]4 [Ec][=Ec] | [Fc][FG][FA][FA][=DA][DF] [DB][Dc] | %13
w: |||
w: way of the King I’m walk-|ing, And * the light|shin- ing bright- er ev- ery day; In|
w: |||
 (D4 D2) [CE][=B,=D] | [DF][CE][CA][DB] [Ec]2 [_Ge]2 | [_Ge][Fd]- [Fd]4 [Fc][FB] | %16
w: |||
w: the * high- way|the King I’m walk- ing, With|my Sav- * ior close|
w: |||
 [EA][EG][EA][EB][EA][EG] [EF][EG] | (z FED C2) |] %18
w: ||
w: be- side me all the way. * *||
w: ||
V:2
 x2 | x8 | x8 | x4 E2 x2 | [Ec]6 x2 | x8 | x8 | x4 E2 x2 | x6 || x2 | x8 | =E x7 | x8 | =B6 x2 | %14
w: |||turned;|high-|||spurned.|||||||
w: |||head;|high-|||tread.||||is||of|
w: |||roam;|high-|||home.|||||||
 x8 | x8 | x8 | [EA]6 |] %18
w: ||||
w: ||||
w: ||||
V:3
 [A,,E,][A,,E,] | [A,,A,][A,,A,][A,,A,][A,,A,] [A,,E,]2 [A,,E,]2 | %2
 [D,F,][D,A,]- [D,A,]4 [D,A,][D,A,] | [E,G,][E,G,][E,B,][E,A,] [E,G,]2 [E,G,]2 | %4
 A,6 [A,,E,][A,,E,] | [A,,A,][A,,A,][A,,F,][A,,E,] [A,,E,]2 [A,,E,]2 | E,E,- E,4 [E,G,][E,A,] | %7
 [E,B,][E,G,][E,B,][E,A,] [E,G,]2 [E,D]2 | [A,,A,C]6 || [A,C][A,C] | %10
 [A,D][A,C][G,B,][G,B,] [E,D]2 [G,D]2 | [A,C]A,- A,4 A,[G,B,] | %12
 [F,A,][F,A,][D,A,][D,A,][B,,B,][B,,B,] [B,,A,][B,,A,] | [E,G,]6 [A,,A,][A,,A,] | %14
 [A,,A,][A,,A,][A,,E,][A,,E,] [A,,A,]2 [C,A,]2 | [D,A,][D,A,]- [D,A,]4 [D,A,][D,D] | %16
 [E,C][E,B,][E,C][E,D][E,C][E,B,] [E,D][E,D] | (z DCB, A,2) |] %18
V:4
 x2 | x8 | x8 | x8 | A,6 x2 | x8 | E,E,- E,4 x2 | x8 | x6 || x2 | x8 | x A,- A,4 A, x | x8 | x8 | %14
 x8 | x8 | x8 | [A,,A,C]6 |] %18

